X:20
T:Day's Catch
R:jig
C:Paul S. Cranford
O:Cape Breton Island
S:http://www.cranfordpub.com
D:currently unrecorded
B:currently unpublished in book form
Z:psc
H:                                                        copyrights Cranford Publications, SOCAN
L:1/8
Q:300
M:6/8
K:Bb
B,DF B2 d|cAF Bdf|g2 b gfd|cec dBG|
B,DF B2 d|cAF Bdf|gab fdc|[1dBB B2 B:|[2dBB Bdf||
|:g2 b gfd|fbg fdB|ebg fdB|[1cFd cdf|
g2 b gfd|fbg fdB|cec dBG|FBB Bdf:|
[2cFd cAF|B,DF Eed|cAF Bdf|gab fbf|dBB B2 B|]
